X:1
T:Title
%%score { ( 1 4 5 ) | ( 2 3 ) }
L:1/8
M:2/4
K:Eb
V:1 treble nm="Grand Piano"
V:4 treble 
V:5 treble 
V:2 bass 
V:3 bass 
V:1
 z2 z[Q:1/4=100] B | [GB]2 cd | [Gc]2 [EG]A | [GB]2 cd | z2 z B | [GB]2 AB | [Ac]2 BA | [EG]4- | %8
 [EG]2 BB | [Ac]2 [Ac]d | [ce]2 [Bd]c | [GB]2 [EG]c | [GB]2 BB | [G=A]2 AA | [C=A]2 [DA][EA] | %15
 [DB]2 c2 | A4 |[M:3/4] G6 | d6 | c6 | B6 | G6 | C2 E2 G2 | B6- | B6 | B6 | e6 | e6 | %28
[M:7/8] A-A-A- A- A3 |[M:3/4] G6 | [=A,EG]2 [A,E]2 [_A,DF]2 | [G,B,E]6- | %32
[M:5/8] [G,B,E]- [G,B,E]3 z |] %33
V:2
 z2 z G | z2[K:treble] [G,E]2 | B,,B, z F | z2[K:treble] [G,E]2 | B,,B, z G | F,,A,[K:treble] FG | %6
 B,,B,[K:treble] GF | E,,_G, =G,C | B,2[K:treble] GG | A,,A, z[K:treble] B | A,,A, z A | %11
 E,,B, z A | z2[K:treble] [G,E]2 | z2 [F,C]2 | F,,=A, [F,C]2 | z2[K:treble] A2 | [B,DF]4 | %17
[M:3/4] D2 B,2 B,2 | z2 E2 E2 | z2 E2 E2 | z2 E2 E2 | z2 =A,2 A,2 | C,2 E,2 G,2 | %23
 z2[K:treble] D2 D2 | z2 D2 D2 | z2 _D2 D2 | z2 [GB]2 [GB]2 | z2[K:treble] [EA]2 [EA]2 | %28
[M:7/8][K:bass] z2 C2 =B,3 |[M:3/4] z2 B,2 B,2 | [C,,C,]2 [=B,,,=B,,]2 [_B,,,_B,,]2 | %31
 [E,,E,]2 B,,2 G,,2 |[M:5/8] E,,- E,,3 z |] %33
V:3
 x4 | E,,B,[K:treble] GG | z2 G,2 | E,,B,[K:treble] GG | z2 G,2 | z2[K:treble] [F,C]2 | %6
 z2[K:treble] [A,D]2 | x4 | x2[K:treble] x2 | z2 [E,C]2[K:treble] | z2 [E,C]2 | z2 G,2 | %12
 E,,B,[K:treble] GG | C,,=A, FE | x4 | [B,,,B,,]4[K:treble] | x4 |[M:3/4] G,6 | D6 | C6 | B,6 | %21
 G,6 | x6 | B,6[K:treble] | A,6 | G,6 | E,6 | [A,,A,]6[K:treble] | %28
[M:7/8][K:bass] [F,,F,]-[F,,F,]-[F,,F,]- [F,,F,]- [F,,F,]3 |[M:3/4] [B,,,B,,]6 | x6 | x6 | %32
[M:5/8] x5 |] %33
V:4
 x4 | x4 | x4 | x4 | [Gc]4 | x4 | x4 | x4 | x4 | x4 | x4 | x4 | x4 | x4 | x4 | x4 | x4 | %17
[M:3/4] z2 E2 E2 | z2 G2 G2 | z2 G2 G2 | z2 G2 G2 | z2 E2 E2 | x6 | z2 G2 G2 | z2 F2 F2 | %25
 z2 E2 E2 | z2 _d2 d2 | z2 c2 c2 |[M:7/8] z2 E2 E3 |[M:3/4] z2 E2 E2 | x6 | x6 |[M:5/8] x5 |] %33
V:5
 x4 | x4 | x4 | x4 | z2 E2 | x4 | x4 | x4 | x4 | x4 | x4 | x4 | x4 | x4 | x4 | x4 | x4 | %17
[M:3/4] x6 | x6 | x6 | x6 | x6 | x6 | x6 | x6 | x6 | x6 | x6 |[M:7/8] x7 |[M:3/4] x6 | x6 | x6 | %32
[M:5/8] x5 |] %33

